img/icons/mime/large/wmv.svg

<svg height="140.9" width="125.3" xmlns="http://www.w3.org/2000/svg" xmlns:xlink="http://www.w3.org/1999/xlink"><linearGradient id="a" gradientTransform="matrix(.939922 0 0 .896911 -12.081733 -3.352424)" gradientUnits="userSpaceOnUse" x1="24" x2="73" y1="16.4" y2="73.4"><stop offset="0" stop-color="#fff"/><stop offset="1" stop-color="#fff" stop-opacity="0"/></linearGradient><linearGradient id="b"><stop offset="0" stop-opacity=".4"/><stop offset="1" stop-color="#fff" stop-opacity="0"/></linearGradient><linearGradient id="c" gradientTransform="matrix(.835844 0 0 1.105209 -13.263758 -7.925206)" gradientUnits="userSpaceOnUse" x1="160.6" x2="124" xlink:href="#b" y1="56.2" y2="56.2"/><linearGradient id="d" gradientTransform="matrix(1.11917 0 0 .825418 -13.263758 -7.925206)" gradientUnits="userSpaceOnUse" x1="86.6" x2="40.3" xlink:href="#b" y1="76.5" y2="76.4"/><linearGradient id="e" gradientTransform="matrix(.632812 0 0 1.182913 -5.352506 -7.925206)" gradientUnits="userSpaceOnUse" x1="52.9" x2="17.1" xlink:href="#b" y1="53" y2="53"/><rect fill="none" height="133.4" rx="22.9" stroke="#000" stroke-linejoin="round" stroke-opacity=".5" stroke-width="7.5" width="117.8" x="3.8" y="3.8"/><rect fill="#83a67f" height="133.4" rx="22.9" stroke="#000" stroke-width="3.8" width="117.8" x="3.6" y="3.7"/><path d="m24.6 7.3h75.7c11.7 0 17.4 5.7 17.4 17.4 0 0-79.3.9-110.4 91.3v-91.3c0-10.3 7-17.4 17.3-17.4z" fill="url(#a)"/><path d="m100.3 132.6h-75.7c-11.6 0-17.3-5.7-17.3-17.4 0 0 27.6-66.5 110.4-76.6v76.6c0 11.7-5.7 17.4-17.4 17.4z" fill="#fff" fill-opacity=".3"/><g stroke="#000"><path d="m5.1 75.4h114v13.1h-114z" fill="#6e6d6e" stroke-width="2"/><path d="m5.1 19.7h114v13.1h-114z" fill="#6d6d6d" stroke-width="2"/><path d="m5.5 32.8h22.7v42.6h-22.7z" fill="url(#e)" stroke-width=".5"/><path d="m30.3 32.8h58.1v42.6h-58.1z" fill="url(#d)" stroke-width=".5"/><path d="m90.7 32.8h32.1v42.6h-32.1z" fill="url(#c)" stroke-width=".6"/><path d="m9.4 23h8.6v6.6h-8.6z" fill="#fff" stroke-width=".5"/><path d="m22.4 23h8.6v6.6h-8.6z" fill="#fff" stroke-width=".5"/><path d="m35.3 23h8.6v6.6h-8.6z" fill="#fff" stroke-width=".5"/><path d="m48.2 23h8.6v6.6h-8.6z" fill="#fff" stroke-width=".5"/><path d="m61.1 23h8.6v6.6h-8.6z" fill="#fff" stroke-width=".5"/><path d="m74 23h8.6v6.6h-8.6z" fill="#fff" stroke-width=".5"/><path d="m86.9 23h8.6v6.6h-8.6z" fill="#fff" stroke-width=".5"/><path d="m99.8 23h8.6v6.6h-8.6z" fill="#fff" stroke-width=".5"/><path d="m112.6 23h5.9v6.6h-5.9z" fill="#fff" stroke-width=".4"/><path d="m9.8 79h8.6v6.6h-8.6z" fill="#fff" stroke-width=".5"/><path d="m22.7 79h8.6v6.6h-8.6z" fill="#fff" stroke-width=".5"/><path d="m35.6 79h8.6v6.6h-8.6z" fill="#fff" stroke-width=".5"/><path d="m48.5 79h8.6v6.6h-8.6z" fill="#fff" stroke-width=".5"/><path d="m61.4 79h8.6v6.6h-8.6z" fill="#fff" stroke-width=".5"/><path d="m74.3 79h8.6v6.6h-8.6z" fill="#fff" stroke-width=".5"/><path d="m87.2 79h8.6v6.6h-8.6z" fill="#fff" stroke-width=".5"/><path d="m100.1 79h8.6v6.6h-8.6z" fill="#fff" stroke-width=".5"/><path d="m112.9 79h5.4v6.6h-5.4z" fill="#fff" stroke-width=".4"/></g><path d="m84.3 96.3h6.5l7.9 20.3h.1l8.2-20.3h6.4l-12.1 26h-5.8zm-28.8 26h-5.6v-26h8.3l6.9 20.1 6.9-20.1h8.4v26h-5.7v-19.4h-.1l-6.8 19.4h-5.4l-6.8-19.4h-.1zm-44.9-26h6.1l3.8 19.3h.2l5.6-19.3h6.7l5.5 19.3h.1l3.9-19.3h6l-6.6 26h-6.6l-5.6-19.2h-.1l-5.7 19.2h-6.6z" fill="#fff"/><path d="m85 97h6.4l7.9 20.3h.2l8.1-20.3h6.5l-12.2 26h-5.7zm-28.8 26h-5.6v-26h8.3l6.8 20.1 6.9-20.1h8.4v26h-5.6v-19.4h-.1l-6.8 19.4h-5.4l-6.8-19.4h-.1zm-44.9-26h6.1l3.8 19.3h.2l5.6-19.3h6.6l5.6 19.3h.1l3.8-19.3h6.1l-6.6 26h-6.7l-5.5-19.3h-.2l-5.6 19.3h-6.7z"/></svg>

<svg xmlns:svg="http://www.w3.org/2000/svg" xmlns="http://www.w3.org/2000/svg" xmlns:xlink="http://www.w3.org/1999/xlink" id="svg1" width="125.3" height="140.9" version="1">
<style>
.s0{
  stop-color:#ffffff;
  stop-opacity:0;
}
.s1{
  stop-color:#46a046;
  stop-opacity:1;
}
.s2{
  stop-color:#df421e;
  stop-opacity:1;
}
.s3{
  stop-color:#ada7c8;
  stop-opacity:1;
}
.s4{
  stop-color:#eed680;
  stop-opacity:1;
}
.s5{
  stop-color:#00ff00;
  stop-opacity:1;
}
.s6{
  stop-color:#ff0000;
  stop-opacity:1;
}
.s7{
  stop-color:#7f8cff;
  stop-opacity:1;
}
.s8{
  stop-color:#ffff00;
  stop-opacity:1;
}
.s9{
  stop-color:#000000;
  stop-opacity:0.4;
}
.s10{
  fill:#fff;
  stroke-width:0.5;
  stroke:#000;
}
.s11{
  fill:#fff;
  stroke-width:0.4;
  stroke:#000;
}

</style>  <metadata id="metadata15"/>
  <defs id="defs3">
    <linearGradient id="linearGradient3587">
      <stop id="stop3589" offset="0" style="stop-color:#efe0cd;stop-opacity:0.6"/>
      <stop id="stop3591" offset="1" style="stop-color:#cececd;stop-opacity:0.2"/>
    </linearGradient>
    <linearGradient id="linearGradient2832">
      <stop offset="0" id="stop2834" style="stop-color:#ffffff;stop-opacity:1"/>
      <stop offset="1" id="stop2836" class="s0"/>
    </linearGradient>
    <linearGradient id="linearGradient839">
      <stop offset="0" id="stop840" class="s1"/>
      <stop offset="0.4" id="stop841" class="s2"/>
      <stop offset="0.7" id="stop842" class="s3"/>
      <stop offset="1" id="stop843" class="s4"/>
    </linearGradient>
    <linearGradient xlink:href="#linearGradient839" id="linearGradient836" x1="0" y1="0.5" x2="1" y2="0.5"/>
    <linearGradient xlink:href="#linearGradient2832" id="linearGradient2830" gradientTransform="matrix(0.939922,0,0,0.896911,-12.081733,-3.3524237)" x1="24" y1="16.4" x2="73" y2="73.4" gradientUnits="userSpaceOnUse"/>
    <linearGradient y2="93.7" x2="107.3" y1="124.3" x1="111.3" gradientTransform="matrix(0.777129,0,0,0.894628,-162.4688,12.76856)" gradientUnits="userSpaceOnUse" id="linearGradient1407" xlink:href="#linearGradient1700"/>
    <linearGradient y2="93.7" x2="107.3" y1="124.3" x1="111.3" gradientTransform="matrix(0.777129,0,0,0.894628,-2.922179,10.43077)" gradientUnits="userSpaceOnUse" id="linearGradient1390" xlink:href="#linearGradient1700"/>
    <linearGradient id="linearGradient1350">
      <stop offset="0" id="stop1352" class="s1"/>
      <stop offset="0.4" id="stop1354" class="s2"/>
      <stop offset="0.7" id="stop1356" class="s3"/>
      <stop offset="1" id="stop1358" class="s4"/>
    </linearGradient>
    <linearGradient xlink:href="#linearGradient839" id="linearGradient1360" x1="0" y1="0.5" x2="1" y2="0.5"/>
    <linearGradient xlink:href="#linearGradient1700" id="linearGradient1362" gradientTransform="matrix(0.870364,0,0,1.001961,4.612015,4.886798)" x1="123.5" y1="121.7" x2="128.7" y2="88" gradientUnits="userSpaceOnUse"/>
    <linearGradient xlink:href="#linearGradient839" id="linearGradient1363" x1="0" y1="0.5" x2="1" y2="0.5"/>
    <linearGradient id="linearGradient1353">
      <stop offset="0" id="stop1355" class="s1"/>
      <stop offset="0.4" id="stop1357" class="s2"/>
      <stop offset="0.7" id="stop1359" class="s3"/>
      <stop offset="1" id="stop1361" class="s4"/>
    </linearGradient>
    <linearGradient id="linearGradient1700">
      <stop offset="0" id="stop1701" style="stop-color:#000000;stop-opacity:0.7"/>
      <stop offset="1" id="stop1702" style="stop-color:#000000;stop-opacity:0"/>
    </linearGradient>
    <linearGradient y2="0.5" x2="1" y1="0.5" x1="0" id="linearGradient1427" xlink:href="#linearGradient839"/>
    <linearGradient id="linearGradient1417">
      <stop id="stop1419" offset="0" class="s1"/>
      <stop id="stop1421" offset="0.4" class="s2"/>
      <stop id="stop1423" offset="0.7" class="s3"/>
      <stop id="stop1425" offset="1" class="s4"/>
    </linearGradient>
    <linearGradient xlink:href="#linearGradient839" id="linearGradient1384" x1="0" y1="0.5" x2="1" y2="0.5"/>
    <linearGradient id="linearGradient1374">
      <stop offset="0" id="stop1376" class="s1"/>
      <stop offset="0.4" id="stop1378" class="s2"/>
      <stop offset="0.7" id="stop1380" class="s3"/>
      <stop offset="1" id="stop1382" class="s4"/>
    </linearGradient>
    <linearGradient xlink:href="#linearGradient839" id="linearGradient2205" x1="0" y1="0.5" x2="1" y2="0.5"/>
    <linearGradient id="linearGradient2195">
      <stop offset="0" id="stop2197" class="s1"/>
      <stop offset="0.4" id="stop2199" class="s2"/>
      <stop offset="0.7" id="stop2201" class="s3"/>
      <stop offset="1" id="stop2203" class="s4"/>
    </linearGradient>
    <linearGradient xlink:href="#linearGradient839" id="linearGradient3025" x1="0" y1="0.5" x2="1" y2="0.5"/>
    <linearGradient id="linearGradient3015">
      <stop offset="0" id="stop3017" class="s1"/>
      <stop offset="0.4" id="stop3019" class="s2"/>
      <stop offset="0.7" id="stop3021" class="s3"/>
      <stop offset="1" id="stop3023" class="s4"/>
    </linearGradient>
    <linearGradient xlink:href="#linearGradient839" id="linearGradient3845" x1="0" y1="0.5" x2="1" y2="0.5"/>
    <linearGradient id="linearGradient3835">
      <stop offset="0" id="stop3837" class="s1"/>
      <stop offset="0.4" id="stop3839" class="s2"/>
      <stop offset="0.7" id="stop3841" class="s3"/>
      <stop offset="1" id="stop3843" class="s4"/>
    </linearGradient>
    <linearGradient xlink:href="#linearGradient839" id="linearGradient4665" x1="0" y1="0.5" x2="1" y2="0.5"/>
    <linearGradient id="linearGradient4655">
      <stop offset="0" id="stop4657" class="s1"/>
      <stop offset="0.4" id="stop4659" class="s2"/>
      <stop offset="0.7" id="stop4661" class="s3"/>
      <stop offset="1" id="stop4663" class="s4"/>
    </linearGradient>
    <linearGradient xlink:href="#linearGradient839" id="linearGradient5485" x1="0" y1="0.5" x2="1" y2="0.5"/>
    <linearGradient id="linearGradient5475">
      <stop offset="0" id="stop5477" class="s1"/>
      <stop offset="0.4" id="stop5479" class="s2"/>
      <stop offset="0.7" id="stop5481" class="s3"/>
      <stop offset="1" id="stop5483" class="s4"/>
    </linearGradient>
    <linearGradient xlink:href="#linearGradient839" id="linearGradient6305" x1="0" y1="0.5" x2="1" y2="0.5"/>
    <linearGradient id="linearGradient6295">
      <stop offset="0" id="stop6297" class="s1"/>
      <stop offset="0.4" id="stop6299" class="s2"/>
      <stop offset="0.7" id="stop6301" class="s3"/>
      <stop offset="1" id="stop6303" class="s4"/>
    </linearGradient>
    <linearGradient xlink:href="#linearGradient839" id="linearGradient7125" x1="0" y1="0.5" x2="1" y2="0.5"/>
    <linearGradient id="linearGradient7115">
      <stop offset="0" id="stop7117" class="s1"/>
      <stop offset="0.4" id="stop7119" class="s2"/>
      <stop offset="0.7" id="stop7121" class="s3"/>
      <stop offset="1" id="stop7123" class="s4"/>
    </linearGradient>
    <linearGradient y2="0.5" x2="1" y1="0.5" x1="0" id="linearGradient1432" xlink:href="#linearGradient839"/>
    <linearGradient id="linearGradient1422">
      <stop id="stop1424" offset="0" class="s1"/>
      <stop id="stop1426" offset="0.4" class="s2"/>
      <stop id="stop1428" offset="0.7" class="s3"/>
      <stop id="stop1430" offset="1" class="s4"/>
    </linearGradient>
    <linearGradient y2="0.5" x2="1" y1="0.5" x1="0" id="linearGradient2255" xlink:href="#linearGradient839"/>
    <linearGradient id="linearGradient2245">
      <stop id="stop2247" offset="0" class="s1"/>
      <stop id="stop2249" offset="0.4" class="s2"/>
      <stop id="stop2251" offset="0.7" class="s3"/>
      <stop id="stop2253" offset="1" class="s4"/>
    </linearGradient>
    <linearGradient y2="0.5" x2="1" y1="0.5" x1="0" id="linearGradient3075" xlink:href="#linearGradient839"/>
    <linearGradient id="linearGradient3065">
      <stop id="stop3067" offset="0" class="s1"/>
      <stop id="stop3069" offset="0.4" class="s2"/>
      <stop id="stop3071" offset="0.7" class="s3"/>
      <stop id="stop3073" offset="1" class="s4"/>
    </linearGradient>
    <linearGradient xlink:href="#linearGradient850" id="linearGradient853" x1="52.9" y1="53" x2="17.1" y2="53" gradientTransform="scale(0.84537,1.182913)" gradientUnits="userSpaceOnUse"/>
    <linearGradient xlink:href="#linearGradient850" id="linearGradient855" x1="86.6" y1="76.5" x2="40.3" y2="76.4" gradientTransform="scale(1.211508,0.825418)" gradientUnits="userSpaceOnUse"/>
    <linearGradient xlink:href="#linearGradient839" id="linearGradient1489" x1="0" y1="0.5" x2="1" y2="0.5"/>
    <linearGradient id="linearGradient833">
      <stop offset="0" id="stop834" class="s5"/>
      <stop offset="0.3" id="stop837" class="s6"/>
      <stop offset="0.8" id="stop838" class="s7"/>
      <stop offset="1" id="stop835" class="s8"/>
    </linearGradient>
    <linearGradient id="linearGradient1474">
      <stop offset="0" id="stop1476" class="s1"/>
      <stop offset="0.4" id="stop1478" class="s2"/>
      <stop offset="0.7" id="stop1480" class="s3"/>
      <stop offset="1" id="stop1482" class="s4"/>
    </linearGradient>
    <linearGradient xlink:href="#linearGradient850" id="linearGradient859" x1="160.6" y1="56.2" x2="124" y2="56.2" gradientTransform="scale(0.904806,1.105209)" gradientUnits="userSpaceOnUse"/>
    <linearGradient id="linearGradient850">
      <stop offset="0" id="stop851" class="s9"/>
      <stop offset="1" id="stop852" class="s0"/>
    </linearGradient>
    <linearGradient xlink:href="#linearGradient850" id="linearGradient1543" gradientUnits="userSpaceOnUse" gradientTransform="matrix(0.835844,0,0,1.105209,-13.263758,-7.9252057)" x1="160.6" y1="56.2" x2="124" y2="56.2"/>
    <linearGradient xlink:href="#linearGradient850" id="linearGradient1546" gradientUnits="userSpaceOnUse" gradientTransform="matrix(1.11917,0,0,0.825418,-13.263758,-7.9252057)" x1="86.6" y1="76.5" x2="40.3" y2="76.4"/>
    <linearGradient xlink:href="#linearGradient850" id="linearGradient1549" gradientUnits="userSpaceOnUse" gradientTransform="matrix(0.632812,0,0,1.182913,-5.3525064,-7.9252057)" x1="52.9" y1="53" x2="17.1" y2="53"/>
    <linearGradient xlink:href="#linearGradient850" id="linearGradient3163" x1="1" y1="0.5" x2="0" y2="0.5"/>
    <linearGradient xlink:href="#linearGradient850" id="linearGradient3161" x1="0.9" y1="0.5" x2="0" y2="0.5"/>
    <linearGradient xlink:href="#linearGradient839" id="linearGradient3159" x1="0" y1="0.5" x2="1" y2="0.5"/>
    <linearGradient id="linearGradient3149">
      <stop offset="0" id="stop3151" class="s5"/>
      <stop offset="0.3" id="stop3153" class="s6"/>
      <stop offset="0.8" id="stop3155" class="s7"/>
      <stop offset="1" id="stop3157" class="s8"/>
    </linearGradient>
    <linearGradient id="linearGradient3139">
      <stop offset="0" id="stop3141" class="s1"/>
      <stop offset="0.4" id="stop3143" class="s2"/>
      <stop offset="0.7" id="stop3145" class="s3"/>
      <stop offset="1" id="stop3147" class="s4"/>
    </linearGradient>
    <linearGradient xlink:href="#linearGradient850" id="linearGradient3137" x1="0.9" y1="0.5" x2="0" y2="0.5"/>
    <linearGradient id="linearGradient3131">
      <stop offset="0" id="stop3133" class="s9"/>
      <stop offset="1" id="stop3135" class="s0"/>
    </linearGradient>
    <linearGradient xlink:href="#linearGradient850" id="linearGradient4097" x1="1" y1="0.5" x2="0" y2="0.5"/>
    <linearGradient xlink:href="#linearGradient850" id="linearGradient4095" x1="0.9" y1="0.5" x2="0" y2="0.5"/>
    <linearGradient xlink:href="#linearGradient839" id="linearGradient4093" x1="0" y1="0.5" x2="1" y2="0.5"/>
    <linearGradient id="linearGradient4083">
      <stop offset="0" id="stop4085" class="s5"/>
      <stop offset="0.3" id="stop4087" class="s6"/>
      <stop offset="0.8" id="stop4089" class="s7"/>
      <stop offset="1" id="stop4091" class="s8"/>
    </linearGradient>
    <linearGradient id="linearGradient4073">
      <stop offset="0" id="stop4075" class="s1"/>
      <stop offset="0.4" id="stop4077" class="s2"/>
      <stop offset="0.7" id="stop4079" class="s3"/>
      <stop offset="1" id="stop4081" class="s4"/>
    </linearGradient>
    <linearGradient xlink:href="#linearGradient850" id="linearGradient4071" x1="0.9" y1="0.5" x2="0" y2="0.5"/>
    <linearGradient id="linearGradient4065">
      <stop offset="0" id="stop4067" class="s9"/>
      <stop offset="1" id="stop4069" class="s0"/>
    </linearGradient>
    <linearGradient xlink:href="#linearGradient850" id="linearGradient5031" x1="1" y1="0.5" x2="0" y2="0.5"/>
    <linearGradient xlink:href="#linearGradient850" id="linearGradient5029" x1="0.9" y1="0.5" x2="0" y2="0.5"/>
    <linearGradient xlink:href="#linearGradient839" id="linearGradient5027" x1="0" y1="0.5" x2="1" y2="0.5"/>
    <linearGradient id="linearGradient5017">
      <stop offset="0" id="stop5019" class="s5"/>
      <stop offset="0.3" id="stop5021" class="s6"/>
      <stop offset="0.8" id="stop5023" class="s7"/>
      <stop offset="1" id="stop5025" class="s8"/>
    </linearGradient>
    <linearGradient id="linearGradient5007">
      <stop offset="0" id="stop5009" class="s1"/>
      <stop offset="0.4" id="stop5011" class="s2"/>
      <stop offset="0.7" id="stop5013" class="s3"/>
      <stop offset="1" id="stop5015" class="s4"/>
    </linearGradient>
    <linearGradient xlink:href="#linearGradient850" id="linearGradient5005" x1="0.9" y1="0.5" x2="0" y2="0.5"/>
    <linearGradient id="linearGradient4999">
      <stop offset="0" id="stop5001" class="s9"/>
      <stop offset="1" id="stop5003" class="s0"/>
    </linearGradient>
    <linearGradient xlink:href="#linearGradient850" id="linearGradient5111" gradientUnits="userSpaceOnUse" gradientTransform="matrix(0.904806,0,0,1.105209,-167.5905,6.843054)" x1="160.6" y1="56.2" x2="124" y2="56.2"/>
    <linearGradient xlink:href="#linearGradient850" id="linearGradient5114" gradientUnits="userSpaceOnUse" gradientTransform="matrix(1.211508,0,0,0.825418,-167.5905,6.843054)" x1="86.6" y1="76.5" x2="40.3" y2="76.4"/>
    <linearGradient xlink:href="#linearGradient850" id="linearGradient5117" gradientUnits="userSpaceOnUse" gradientTransform="matrix(0.84537,0,0,1.182913,-167.5905,6.843054)" x1="52.9" y1="53" x2="17.1" y2="53"/>
    <linearGradient xlink:href="#linearGradient850" id="linearGradient5971" x1="1" y1="0.5" x2="0" y2="0.5"/>
    <linearGradient xlink:href="#linearGradient850" id="linearGradient5969" x1="0.9" y1="0.5" x2="0" y2="0.5"/>
    <linearGradient xlink:href="#linearGradient839" id="linearGradient5967" x1="0" y1="0.5" x2="1" y2="0.5"/>
    <linearGradient id="linearGradient5957">
      <stop offset="0" id="stop5959" class="s5"/>
      <stop offset="0.3" id="stop5961" class="s6"/>
      <stop offset="0.8" id="stop5963" class="s7"/>
      <stop offset="1" id="stop5965" class="s8"/>
    </linearGradient>
    <linearGradient id="linearGradient5947">
      <stop offset="0" id="stop5949" class="s1"/>
      <stop offset="0.4" id="stop5951" class="s2"/>
      <stop offset="0.7" id="stop5953" class="s3"/>
      <stop offset="1" id="stop5955" class="s4"/>
    </linearGradient>
    <linearGradient xlink:href="#linearGradient850" id="linearGradient5945" x1="0.9" y1="0.5" x2="0" y2="0.5"/>
    <linearGradient id="linearGradient5939">
      <stop offset="0" id="stop5941" class="s9"/>
      <stop offset="1" id="stop5943" class="s0"/>
    </linearGradient>
    <linearGradient xlink:href="#linearGradient850" id="linearGradient6045" gradientUnits="userSpaceOnUse" gradientTransform="matrix(0.904806,0,0,1.105209,-164.2006,-0.614573)" x1="160.6" y1="56.2" x2="124" y2="56.2"/>
    <linearGradient xlink:href="#linearGradient850" id="linearGradient6048" gradientUnits="userSpaceOnUse" gradientTransform="matrix(1.211508,0,0,0.825418,-164.2006,-0.614573)" x1="86.6" y1="76.5" x2="40.3" y2="76.4"/>
    <linearGradient xlink:href="#linearGradient850" id="linearGradient6051" gradientUnits="userSpaceOnUse" gradientTransform="matrix(0.84537,0,0,1.182913,-164.2006,-0.614573)" x1="52.9" y1="53" x2="17.1" y2="53"/>
  </defs>
  <rect id="rect834" width="117.8" height="133.4" x="3.8" y="3.8" ry="22.9" rx="22.9" style="fill:none;stroke-linejoin:round;stroke-opacity:0.5;stroke-width:7.5;stroke:#000"/>
  <rect id="rect828" width="117.8" height="133.4" x="3.6" y="3.7" ry="22.9" rx="22.9" style="fill:#83a67f;stroke-width:3.8;stroke:#000"/>
  <path d="M24.6 7.3L100.3 7.3C112 7.3 117.7 13 117.7 24.7 117.7 24.7 38.4 25.6 7.3 116L7.3 24.7C7.3 14.4 14.3 7.3 24.6 7.3z" id="rect2063" fill="url(#linearGradient2830)"/>
  <path d="M100.3 132.6L24.6 132.6C13 132.6 7.3 126.9 7.3 115.2 7.3 115.2 34.9 48.7 117.7 38.6L117.7 115.2C117.7 126.9 112 132.6 100.3 132.6z" id="path2838" style="fill-opacity:0.3;fill:#fff"/>
  <rect id="rect858" width="114" height="13.1" x="5.1" y="75.4" style="fill:#6e6d6e;stroke-width:2;stroke:#000"/>
  <rect id="rect857" width="114" height="13.1" x="5.1" y="19.7" style="fill:#6d6d6d;stroke-width:2;stroke:#000"/>
  <rect id="rect826" width="22.7" height="42.6" x="5.5" y="32.8" style="fill:url(#linearGradient1549);stroke-width:0.5;stroke:#000"/>
  <rect id="rect827" width="58.1" height="42.6" x="30.3" y="32.8" style="fill:url(#linearGradient1546);stroke-width:0.5;stroke:#000"/>
  <rect id="rect880" width="32.1" height="42.6" x="90.7" y="32.8" style="fill:url(#linearGradient1543);stroke-width:0.6;stroke:#000"/>
  <rect id="rect829" width="8.6" height="6.6" x="9.4" y="23" class="s10"/>
  <rect id="rect830" width="8.6" height="6.6" x="22.4" y="23" class="s10"/>
  <rect id="rect831" width="8.6" height="6.6" x="35.3" y="23" class="s10"/>
  <rect id="rect832" width="8.6" height="6.6" x="48.2" y="23" class="s10"/>
  <rect id="rect833" width="8.6" height="6.6" x="61.1" y="23" class="s10"/>
  <rect id="rect1508" width="8.6" height="6.6" x="74" y="23" class="s10"/>
  <rect id="rect835" width="8.6" height="6.6" x="86.9" y="23" class="s10"/>
  <rect id="rect836" width="8.6" height="6.6" x="99.8" y="23" class="s10"/>
  <rect id="rect837" width="5.9" height="6.6" x="112.6" y="23" class="s11"/>
  <rect id="rect838" width="8.6" height="6.6" x="9.8" y="79" class="s10"/>
  <rect id="rect839" width="8.6" height="6.6" x="22.7" y="79" class="s10"/>
  <rect id="rect840" width="8.6" height="6.6" x="35.6" y="79" class="s10"/>
  <rect id="rect841" width="8.6" height="6.6" x="48.5" y="79" class="s10"/>
  <rect id="rect842" width="8.6" height="6.6" x="61.4" y="79" class="s10"/>
  <rect id="rect843" width="8.6" height="6.6" x="74.3" y="79" class="s10"/>
  <rect id="rect844" width="8.6" height="6.6" x="87.2" y="79" class="s10"/>
  <rect id="rect845" width="8.6" height="6.6" x="100.1" y="79" class="s10"/>
  <rect id="rect846" width="5.4" height="6.6" x="112.9" y="79" class="s11"/>
  <path d="M84.3 96.3L90.8 96.3 98.7 116.6 98.8 116.6 107 96.3 113.4 96.3 101.3 122.3 95.5 122.3 84.3 96.3zM55.5 122.3L49.9 122.3 49.9 96.3 58.2 96.3 65.1 116.4 72 96.3 80.4 96.3 80.4 122.3 74.7 122.3 74.7 102.9 74.6 102.9 67.8 122.3 62.4 122.3 55.6 102.9 55.5 102.9 55.5 122.3zM10.6 96.3L16.7 96.3 20.5 115.6 20.7 115.6 26.3 96.3 33 96.3 38.5 115.6 38.6 115.6 42.5 96.3 48.5 96.3 41.9 122.3 35.3 122.3 29.7 103.1 29.6 103.1 23.9 122.3 17.3 122.3 10.6 96.3z" id="path6057" style="fill:#fff;font-family:Trek;font-size:40;stroke-width:1"/>
  <path d="M85 97L91.4 97 99.3 117.3 99.5 117.3 107.6 97 114.1 97 101.9 123 96.2 123 85 97zM56.2 123L50.6 123 50.6 97 58.9 97 65.7 117.1 72.6 97 81 97 81 123 75.4 123 75.4 103.6 75.3 103.6 68.5 123 63.1 123 56.3 103.6 56.2 103.6 56.2 123zM11.3 97L17.4 97 21.2 116.3 21.4 116.3 27 97 33.6 97 39.2 116.3 39.3 116.3 43.1 97 49.2 97 42.6 123 35.9 123 30.4 103.7 30.2 103.7 24.6 123 17.9 123 11.3 97z" id="path885" style="font-family:Trek;font-size:40;stroke-width:1"/>
</svg>
